src/main/resources/img/object/type/Type.svg

<svg width="16" height="16" version="1.1" viewBox="0 0 16 16"  xmlns="http://www.w3.org/2000/svg"><g><path d="m4.5996 6.0996a4.5 4.5 0 0 0-3.5996 4.4219 4.5 4.5 0 0 0 4.5117 4.4785 4.5 4.5 0 0 0 3.4277-1.5996h-3.5391v-0.40039l2.291-3.5996h-3.0918v-3.3008z" fill="#589bc0"/><path d="m5 2v7h2.9453l2.8008-4.4004h0.51562l0.73828 1.207v-3.8066h-7z" fill="#d67876"/><path d="m11 5-5 8h10z" fill="#5eba6a"/></g></svg>

<svg width="16" height="16" xmlns="http://www.w3.org/2000/svg"><path d="M4.6 6.1A4.5 4.5 0 0 0 1 10.52 4.5 4.5 0 0 0 5.512 15a4.5 4.5 0 0 0 3.427-1.6H5.4V13l2.291-3.6H4.6V6.1z" fill="#589bc0"/><path d="M5 2v7h2.945l2.801-4.4h.516L12 5.807V2H5z" fill="#d67876"/><path d="m11 5-5 8h10z" fill="#5eba6a"/></svg>
